exports/number-of-maternal-deaths_v1_850x600.svg

<svg xmlns="http://www.w3.org/2000/svg" version="1.1" style="background-color:#fff;-webkit-font-smoothing:antialiased" width="850" height="600" font-family="'Helvetica Neue',Helvetica,Arial,sans-serif" font-size="18" text-rendering="optimizeLegibility"><g class="ChartTab"><g class="HeaderView"><g opacity=".8" transform="matrix(.31 0 0 .31 770 15)"><a xmlns:xlink="http://www.w3.org/1999/xlink" xlink:href="https://ourworldindata.org" target="_blank"><g><path fill="#1B2543" d="M0 0h211.2v130.1H0z"/><path fill="#E63912" d="M0 112.2h211.2v17.9H0z"/><g><path fill="none" d="M1.2 12.3h210.2v99.2H1.2z"/><path fill="#FFF" d="M37.8 32.2c0 12.7-7.7 19.4-17.1 19.4-9.7 0-16.6-7.5-16.6-18.7 0-11.7 7.3-19.3 17.1-19.3 10.1.1 16.6 7.7 16.6 18.6zm-28.6.6c0 7.9 4.3 14.9 11.8 14.9 7.5 0 11.8-6.9 11.8-15.3 0-7.3-3.8-14.9-11.8-14.9-7.9 0-11.8 7.3-11.8 15.3zM62.7 43.8c0 2.7.1 5.1.2 7.2h-4.3l-.3-4.3h-.1c-1.3 2.1-4 4.9-8.8 4.9-4.2 0-9.1-2.3-9.1-11.6V24.6h4.8v14.6c0 5 1.5 8.4 5.9 8.4 3.2 0 5.5-2.2 6.3-4.4.3-.7.4-1.6.4-2.5V24.6h4.8v19.2zM67.3 32.8c0-3.1-.1-5.8-.2-8.2h4.2l.2 5.2h.2c1.2-3.5 4.1-5.8 7.3-5.8.5 0 .9.1 1.4.2v4.5c-.5-.1-1-.2-1.6-.2-3.4 0-5.8 2.6-6.5 6.2-.1.7-.2 1.4-.2 2.2V51h-4.8V32.8zM95.4 51L86 14.2h5l4.4 18.6c1.1 4.6 2.1 9.2 2.7 12.7h.1c.6-3.7 1.8-8 3-12.8l4.9-18.5h5l4.5 18.7c1 4.4 2 8.7 2.6 12.6h.1c.8-4 1.8-8.1 3-12.7l4.9-18.5h4.9L120.6 51h-5L111 31.9c-1.1-4.7-1.9-8.3-2.4-12h-.1c-.7 3.7-1.5 7.3-2.8 12L100.4 51h-5zM154.9 37.6c0 9.8-6.8 14-13.2 14-7.2 0-12.7-5.2-12.7-13.6 0-8.8 5.8-14 13.1-14 7.7 0 12.8 5.5 12.8 13.6zm-21 .3c0 5.8 3.3 10.1 8 10.1 4.6 0 8-4.3 8-10.3 0-4.5-2.2-10.1-7.9-10.1s-8.1 5.2-8.1 10.3zM158.2 32.8c0-3.1-.1-5.8-.2-8.2h4.2l.2 5.2h.2c1.2-3.5 4.1-5.8 7.3-5.8.5 0 .9.1 1.4.2v4.5c-.5-.1-1-.2-1.6-.2-3.4 0-5.8 2.6-6.5 6.2-.1.7-.2 1.4-.2 2.2V51h-4.8V32.8zM173.5 12.3h4.8V51h-4.8V12.3zM206.5 12.3v31.9c0 2.3.1 5 .2 6.8h-4.3l-.2-4.6h-.2c-1.5 2.9-4.7 5.2-9 5.2-6.4 0-11.3-5.4-11.3-13.4-.1-8.8 5.4-14.2 11.9-14.2 4 0 6.8 1.9 8 4h.1V12.3h4.8zm-4.8 23.1c0-.6-.1-1.4-.2-2a7 7 0 00-6.9-5.6c-5 0-7.9 4.4-7.9 10.2 0 5.3 2.6 9.8 7.8 9.8 3.2 0 6.2-2.1 7.1-5.7.2-.7.2-1.3.2-2.1v-4.6zM42.8 64c.1 1.6-1.1 2.9-3.1 2.9-1.7 0-2.9-1.3-2.9-2.9 0-1.7 1.3-3 3-3 1.9 0 3 1.3 3 3zm-5.4 33.8V71.4h4.8v26.4h-4.8zM47.5 78.6c0-2.7-.1-5-.2-7.1h4.3l.3 4.4h.1c1.3-2.5 4.4-5 8.8-5 3.7 0 9.4 2.2 9.4 11.2v15.8h-4.8V82.6c0-4.3-1.6-7.8-6.1-7.8-3.2 0-5.6 2.2-6.5 4.9-.2.6-.3 1.4-.3 2.2v15.9h-4.8V78.6zM84 61.6c2.9-.4 6.3-.8 10.1-.8 6.8 0 11.7 1.6 14.9 4.6 3.3 3 5.2 7.3 5.2 13.2 0 6-1.9 10.9-5.3 14.3-3.4 3.4-9.1 5.3-16.3 5.3-3.4 0-6.2-.2-8.6-.4V61.6zm4.8 32.5c1.2.2 3 .3 4.8.3 10.2 0 15.7-5.7 15.7-15.6.1-8.7-4.9-14.2-14.9-14.2-2.5 0-4.3.2-5.6.5v29zM132.1 97.8l-.4-3.3h-.2a9.79 9.79 0 01-8.1 3.9c-5.4 0-8.1-3.8-8.1-7.6 0-6.4 5.7-9.9 15.9-9.8v-.5c0-2.2-.6-6.1-6-6.1-2.5 0-5 .8-6.9 2l-1.1-3.2c2.2-1.4 5.4-2.3 8.7-2.3 8.1 0 10.1 5.5 10.1 10.8v9.9c0 2.3.1 4.5.4 6.3h-4.3zm-.7-13.4c-5.3-.1-11.2.8-11.2 5.9 0 3.1 2.1 4.6 4.5 4.6 3.4 0 5.6-2.2 6.4-4.4.2-.5.3-1 .3-1.5v-4.6zM146.6 63.9v7.6h6.9v3.7h-6.9v14.2c0 3.3.9 5.1 3.6 5.1 1.3 0 2.2-.2 2.8-.3l.2 3.6c-.9.4-2.4.7-4.3.7-2.2 0-4-.7-5.2-2-1.4-1.4-1.9-3.8-1.9-6.9V75.1h-4.1v-3.7h4.1v-6.3l4.8-1.2zM171.4 97.8l-.4-3.3h-.2a9.79 9.79 0 01-8.1 3.9c-5.4 0-8.1-3.8-8.1-7.6 0-6.4 5.7-9.9 15.9-9.8v-.5c0-2.2-.6-6.1-6-6.1-2.5 0-5 .8-6.9 2l-1.1-3.2c2.2-1.4 5.4-2.3 8.7-2.3 8.1 0 10.1 5.5 10.1 10.8v9.9c0 2.3.1 4.5.4 6.3h-4.3zm-.7-13.4c-5.3-.1-11.2.8-11.2 5.9 0 3.1 2.1 4.6 4.5 4.6 3.4 0 5.6-2.2 6.4-4.4.2-.5.3-1 .3-1.5v-4.6z"/></g></g></a></g><a href="https://ourworldindata.org/grapher/number-of-maternal-deaths" target="_blank"><text font-size="27" x="15" y="36.6" fill="#555"><tspan x="15" y="36.6">Number of maternal deaths</tspan></text></a><text font-size="14.4" x="15" y="55.5" fill="#666"><tspan x="15" y="55.52">Shown is the number of deaths of women while pregnant or within 42 days of termination of the pregnancy, from</tspan><tspan x="15" y="71.36">causes related to or aggravated by the pregnancy.</tspan></text></g><g class="LineChart"><defs><clipPath id="a"><path d="M68.97 0h830v925.2h-830z"/></clipPath></defs><g class="AxisBoxView"><g class="HorizontalAxis" fill="#666" text-anchor="middle" font-size="16.2"><text x="79" y="556.5">1990</text><text x="217.7" y="556.5">1995</text><text x="356.3" y="556.5">2000</text><text x="495" y="556.5">2005</text><text x="633.7" y="556.5">2010</text><text x="772.4" y="556.5">2015</text></g><g class="VerticalAxis" fill="#666" dominant-baseline="middle" text-anchor="end" font-size="16.2"><text x="73.97" y="535.3">0</text><text x="73.97" y="452.3">100,000</text><text x="73.97" y="369.4">200,000</text><text x="73.97" y="286.4">300,000</text><text x="73.97" y="203.4">400,000</text><text x="73.97" y="120.5">500,000</text></g><g class="AxisGridLines"><path stroke="#ccc" d="M78.97 535.3h693.45"/><path stroke="#ddd" stroke-dasharray="3,2" d="M78.97 452.3h693.45M78.97 369.4h693.45M78.97 286.4h693.45M78.97 203.4h693.45M78.97 120.5h693.45"/></g><g class="AxisGridLines" stroke="#ddd" stroke-dasharray="3,2"><path d="M79 535.3V93.9M217.7 535.3V93.9M356.3 535.3V93.9M495 535.3V93.9M633.7 535.3V93.9M772.4 535.3V93.9"/></g></g><g clip-path="url(#a)"><g class="HeightedLegend clickable"><g class="legendMark"><path fill="#34983f" d="M782.42 282.65h10v2.5h-10z"/><text font-size="14.4" x="797.4" y="288.2" fill="#333"><tspan x="797.42" y="288.22">World</tspan></text></g><g class="legendMark"><path fill="#ca2628" d="M782.42 496.75h10v2.5h-10z"/><text font-size="14.4" x="797.4" y="502.3" fill="#333"><tspan x="797.42" y="502.32">India</tspan></text></g><g class="legendMark"><path fill="#3360a9" d="M782.42 532.95h10v2.5h-10z"/><text font-size="14.4" x="797.4" y="538.5" fill="#333"><tspan x="797.42" y="538.52">Brazil</tspan></text></g></g><g class="Lines"><g class="key-World_0"><path stroke="#34983f" stroke-linecap="round" d="M79 94l28 8 27 8 28 7 28 8 28 7 27 7 28 6 28 8 28 7 27 9 28 8 28 9 28 11 27 10 28 10 28 11 28 6 27 10 28 3 28 7 28 8 27 5 28 7 28 5 27 5" fill="none" stroke-width="1.5"/><g fill="#34983f"><circle cx="79" cy="94" r="2"/><circle cx="107" cy="102" r="2"/><circle cx="134" cy="110" r="2"/><circle cx="162" cy="117" r="2"/><circle cx="190" cy="125" r="2"/><circle cx="218" cy="132" r="2"/><circle cx="245" cy="139" r="2"/><circle cx="273" cy="145" r="2"/><circle cx="301" cy="153" r="2"/><circle cx="329" cy="160" r="2"/><circle cx="356" cy="169" r="2"/><circle cx="384" cy="177" r="2"/><circle cx="412" cy="186" r="2"/><circle cx="440" cy="197" r="2"/><circle cx="467" cy="207" r="2"/><circle cx="495" cy="217" r="2"/><circle cx="523" cy="228" r="2"/><circle cx="551" cy="234" r="2"/><circle cx="578" cy="244" r="2"/><circle cx="606" cy="247" r="2"/><circle cx="634" cy="254" r="2"/><circle cx="662" cy="262" r="2"/><circle cx="689" cy="267" r="2"/><circle cx="717" cy="274" r="2"/><circle cx="745" cy="279" r="2"/><circle cx="772" cy="284" r="2"/></g></g><g class="key-India_0"><path stroke="#ca2628" stroke-linecap="round" d="M79 409l28 4 27 4 28 3 28 3 28 4 27 4 28 4 28 5 28 4 27 5 28 4 28 5 28 4 27 4 28 5 28 4 28 4 27 3 28 4 28 2 28 3 27 1 28 3 28 1 27 2" fill="none" stroke-width="1.5"/><g fill="#ca2628"><circle cx="79" cy="409" r="2"/><circle cx="107" cy="413" r="2"/><circle cx="134" cy="417" r="2"/><circle cx="162" cy="420" r="2"/><circle cx="190" cy="423" r="2"/><circle cx="218" cy="427" r="2"/><circle cx="245" cy="431" r="2"/><circle cx="273" cy="435" r="2"/><circle cx="301" cy="440" r="2"/><circle cx="329" cy="444" r="2"/><circle cx="356" cy="449" r="2"/><circle cx="384" cy="453" r="2"/><circle cx="412" cy="458" r="2"/><circle cx="440" cy="462" r="2"/><circle cx="467" cy="466" r="2"/><circle cx="495" cy="471" r="2"/><circle cx="523" cy="475" r="2"/><circle cx="551" cy="479" r="2"/><circle cx="578" cy="482" r="2"/><circle cx="606" cy="486" r="2"/><circle cx="634" cy="488" r="2"/><circle cx="662" cy="491" r="2"/><circle cx="689" cy="492" r="2"/><circle cx="717" cy="495" r="2"/><circle cx="745" cy="496" r="2"/><circle cx="772" cy="498" r="2"/></g></g><g class="key-Brazil_0"><path stroke="#3360a9" stroke-linecap="round" d="M79 532h28l27 1h222l28 1h56l27-1h56l28 1h221" fill="none" stroke-width="1.5"/><g fill="#3360a9"><circle cx="79" cy="532" r="2"/><circle cx="107" cy="532" r="2"/><circle cx="134" cy="533" r="2"/><circle cx="162" cy="533" r="2"/><circle cx="190" cy="533" r="2"/><circle cx="218" cy="533" r="2"/><circle cx="245" cy="533" r="2"/><circle cx="273" cy="533" r="2"/><circle cx="301" cy="533" r="2"/><circle cx="329" cy="533" r="2"/><circle cx="356" cy="533" r="2"/><circle cx="384" cy="534" r="2"/><circle cx="412" cy="534" r="2"/><circle cx="440" cy="534" r="2"/><circle cx="467" cy="533" r="2"/><circle cx="495" cy="533" r="2"/><circle cx="523" cy="533" r="2"/><circle cx="551" cy="534" r="2"/><circle cx="578" cy="534" r="2"/><circle cx="606" cy="534" r="2"/><circle cx="634" cy="534" r="2"/><circle cx="662" cy="534" r="2"/><circle cx="689" cy="534" r="2"/><circle cx="717" cy="534" r="2"/><circle cx="745" cy="534" r="2"/><circle cx="772" cy="534" r="2"/></g></g></g></g></g><g class="SourcesFooter" fill="#777"><g class="clickable" fill="#777"><text font-size="12.6" x="15" y="581.6"><tspan x="15" y="581.58">Source: World Bank – WDI</tspan></text></g><text font-size="12.6" x="649" y="581.6"><tspan x="649.02" y="581.58"><a target="_blank" href="http://ourworldindata.org" fill="#777">OurWorldInData.org</a> • <a href="http://creativecommons.org/licenses/by-sa/4.0/deed.en_US" target="_blank" fill="#777">CC BY-SA</a></tspan></text></g></g></svg>

<svg xmlns="http://www.w3.org/2000/svg" version="1.1" style="font-family: 'Helvetica Neue', Helvetica, Arial, sans-serif; font-size: 18px; background-color: white; text-rendering: optimizeLegibility; -webkit-font-smoothing: antialiased;" width="850" height="600"><g class="ChartTab"><g class="HeaderView"><g opacity="0.8" transform="translate(770, 15) scale(0.31)"><a xmlns:xlink="http://www.w3.org/1999/xlink" xlink:href="https://ourworldindata.org" target="_blank"><g><rect x="0" y="0" fill="#1B2543" width="211.2" height="130.1"/><rect x="0" y="112.2" fill="#E63912" width="211.2" height="17.9"/><g><rect x="1.2" y="12.3" fill="none" width="210.2" height="99.2"/><path fill="#FFFFFF" d="M37.8,32.2c0,12.7-7.7,19.4-17.1,19.4c-9.7,0-16.6-7.5-16.6-18.7c0-11.7,7.3-19.3,17.1-19.3 C31.3,13.7,37.8,21.3,37.8,32.2z M9.2,32.8c0,7.9,4.3,14.9,11.8,14.9c7.5,0,11.8-6.9,11.8-15.3c0-7.3-3.8-14.9-11.8-14.9 C13.1,17.5,9.2,24.8,9.2,32.8z"/><path fill="#FFFFFF" d="M62.7,43.8c0,2.7,0.1,5.1,0.2,7.2h-4.3l-0.3-4.3h-0.1c-1.3,2.1-4,4.9-8.8,4.9c-4.2,0-9.1-2.3-9.1-11.6 V24.6h4.8v14.6c0,5,1.5,8.4,5.9,8.4c3.2,0,5.5-2.2,6.3-4.4c0.3-0.7,0.4-1.6,0.4-2.5V24.6h4.8V43.8z"/><path fill="#FFFFFF" d="M67.3,32.8c0-3.1-0.1-5.8-0.2-8.2h4.2l0.2,5.2h0.2c1.2-3.5,4.1-5.8,7.3-5.8c0.5,0,0.9,0.1,1.4,0.2v4.5 c-0.5-0.1-1-0.2-1.6-0.2c-3.4,0-5.8,2.6-6.5,6.2c-0.1,0.7-0.2,1.4-0.2,2.2V51h-4.8V32.8z"/><path fill="#FFFFFF" d="M95.4,51l-9.4-36.8h5l4.4,18.6c1.1,4.6,2.1,9.2,2.7,12.7h0.1c0.6-3.7,1.8-8,3-12.8l4.9-18.5h5l4.5,18.7 c1,4.4,2,8.7,2.6,12.6h0.1c0.8-4,1.8-8.1,3-12.7l4.9-18.5h4.9L120.6,51h-5L111,31.9c-1.1-4.7-1.9-8.3-2.4-12h-0.1 c-0.7,3.7-1.5,7.3-2.8,12L100.4,51H95.4z"/><path fill="#FFFFFF" d="M154.9,37.6c0,9.8-6.8,14-13.2,14c-7.2,0-12.7-5.2-12.7-13.6c0-8.8,5.8-14,13.1-14 C149.8,24,154.9,29.5,154.9,37.6z M133.9,37.9c0,5.8,3.3,10.1,8,10.1c4.6,0,8-4.3,8-10.3c0-4.5-2.2-10.1-7.9-10.1 C136.3,27.6,133.9,32.8,133.9,37.9z"/><path fill="#FFFFFF" d="M158.2,32.8c0-3.1-0.1-5.8-0.2-8.2h4.2l0.2,5.2h0.2c1.2-3.5,4.1-5.8,7.3-5.8c0.5,0,0.9,0.1,1.4,0.2v4.5 c-0.5-0.1-1-0.2-1.6-0.2c-3.4,0-5.8,2.6-6.5,6.2c-0.1,0.7-0.2,1.4-0.2,2.2V51h-4.8V32.8z"/><path fill="#FFFFFF" d="M173.5,12.3h4.8V51h-4.8V12.3z"/><path fill="#FFFFFF" d="M206.5,12.3v31.9c0,2.3,0.1,5,0.2,6.8h-4.3l-0.2-4.6H202c-1.5,2.9-4.7,5.2-9,5.2 c-6.4,0-11.3-5.4-11.3-13.4c-0.1-8.8,5.4-14.2,11.9-14.2c4,0,6.8,1.9,8,4h0.1V12.3H206.5z M201.7,35.4c0-0.6-0.1-1.4-0.2-2 c-0.7-3.1-3.3-5.6-6.9-5.6c-5,0-7.9,4.4-7.9,10.2c0,5.3,2.6,9.8,7.8,9.8c3.2,0,6.2-2.1,7.1-5.7c0.2-0.7,0.2-1.3,0.2-2.1V35.4z"/><path fill="#FFFFFF" d="M42.8,64c0.1,1.6-1.1,2.9-3.1,2.9c-1.7,0-2.9-1.3-2.9-2.9c0-1.7,1.3-3,3-3C41.7,61,42.8,62.3,42.8,64z M37.4,97.8V71.4h4.8v26.4H37.4z"/><path fill="#FFFFFF" d="M47.5,78.6c0-2.7-0.1-5-0.2-7.1h4.3l0.3,4.4h0.1c1.3-2.5,4.4-5,8.8-5c3.7,0,9.4,2.2,9.4,11.2v15.8h-4.8 V82.6c0-4.3-1.6-7.8-6.1-7.8c-3.2,0-5.6,2.2-6.5,4.9c-0.2,0.6-0.3,1.4-0.3,2.2v15.9h-4.8V78.6z"/><path fill="#FFFFFF" d="M84,61.6c2.9-0.4,6.3-0.8,10.1-0.8c6.8,0,11.7,1.6,14.9,4.6c3.3,3,5.2,7.3,5.2,13.2c0,6-1.9,10.9-5.3,14.3 c-3.4,3.4-9.1,5.3-16.3,5.3c-3.4,0-6.2-0.2-8.6-0.4V61.6z M88.8,94.1c1.2,0.2,3,0.3,4.8,0.3c10.2,0,15.7-5.7,15.7-15.6 c0.1-8.7-4.9-14.2-14.9-14.2c-2.5,0-4.3,0.2-5.6,0.5V94.1z"/><path fill="#FFFFFF" d="M132.1,97.8l-0.4-3.3h-0.2c-1.5,2.1-4.3,3.9-8.1,3.9c-5.4,0-8.1-3.8-8.1-7.6c0-6.4,5.7-9.9,15.9-9.8v-0.5 c0-2.2-0.6-6.1-6-6.1c-2.5,0-5,0.8-6.9,2l-1.1-3.2c2.2-1.4,5.4-2.3,8.7-2.3c8.1,0,10.1,5.5,10.1,10.8v9.9c0,2.3,0.1,4.5,0.4,6.3 H132.1z M131.4,84.4c-5.3-0.1-11.2,0.8-11.2,5.9c0,3.1,2.1,4.6,4.5,4.6c3.4,0,5.6-2.2,6.4-4.4c0.2-0.5,0.3-1,0.3-1.5V84.4z"/><path fill="#FFFFFF" d="M146.6,63.9v7.6h6.9v3.7h-6.9v14.2c0,3.3,0.9,5.1,3.6,5.1c1.3,0,2.2-0.2,2.8-0.3l0.2,3.6 c-0.9,0.4-2.4,0.7-4.3,0.7c-2.2,0-4-0.7-5.2-2c-1.4-1.4-1.9-3.8-1.9-6.9V75.1h-4.1v-3.7h4.1v-6.3L146.6,63.9z"/><path fill="#FFFFFF" d="M171.4,97.8l-0.4-3.3h-0.2c-1.5,2.1-4.3,3.9-8.1,3.9c-5.4,0-8.1-3.8-8.1-7.6c0-6.4,5.7-9.9,15.9-9.8v-0.5 c0-2.2-0.6-6.1-6-6.1c-2.5,0-5,0.8-6.9,2l-1.1-3.2c2.2-1.4,5.4-2.3,8.7-2.3c8.1,0,10.1,5.5,10.1,10.8v9.9c0,2.3,0.1,4.5,0.4,6.3 H171.4z M170.7,84.4c-5.3-0.1-11.2,0.8-11.2,5.9c0,3.1,2.1,4.6,4.5,4.6c3.4,0,5.6-2.2,6.4-4.4c0.2-0.5,0.3-1,0.3-1.5V84.4z"/></g></g></a></g><a href="https://ourworldindata.org/grapher/number-of-maternal-deaths" target="_blank"><text font-size="27.00" x="15.0" y="36.6" fill="#555"><tspan x="15" y="36.6">Number of maternal deaths</tspan></text></a><text font-size="14.40" x="15.0" y="55.5" fill="#666"><tspan x="15" y="55.519999999999996">Shown is the number of deaths of women while pregnant or within 42 days of termination of the pregnancy, from</tspan><tspan x="15" y="71.36">causes related to or aggravated by the pregnancy.</tspan></text></g><g class="LineChart"><defs><clipPath id="boundsClip-274"><rect x="68.968" y="0" width="830" height="925.2"></rect></clipPath></defs><g class="AxisBoxView"><g class="HorizontalAxis"><text x="79" y="556.5" fill="#666" text-anchor="middle" font-size="16.2">1990</text><text x="217.7" y="556.5" fill="#666" text-anchor="middle" font-size="16.2">1995</text><text x="356.3" y="556.5" fill="#666" text-anchor="middle" font-size="16.2">2000</text><text x="495" y="556.5" fill="#666" text-anchor="middle" font-size="16.2">2005</text><text x="633.7" y="556.5" fill="#666" text-anchor="middle" font-size="16.2">2010</text><text x="772.4" y="556.5" fill="#666" text-anchor="middle" font-size="16.2">2015</text></g><g class="VerticalAxis"><text x="73.97" y="535.3" fill="#666" dominant-baseline="middle" text-anchor="end" font-size="16.2">0</text><text x="73.97" y="452.3" fill="#666" dominant-baseline="middle" text-anchor="end" font-size="16.2">100,000</text><text x="73.97" y="369.4" fill="#666" dominant-baseline="middle" text-anchor="end" font-size="16.2">200,000</text><text x="73.97" y="286.4" fill="#666" dominant-baseline="middle" text-anchor="end" font-size="16.2">300,000</text><text x="73.97" y="203.4" fill="#666" dominant-baseline="middle" text-anchor="end" font-size="16.2">400,000</text><text x="73.97" y="120.5" fill="#666" dominant-baseline="middle" text-anchor="end" font-size="16.2">500,000</text></g><g class="AxisGridLines"><line x1="78.97" y1="535.3" x2="772.42" y2="535.3" stroke="#ccc"></line><line x1="78.97" y1="452.3" x2="772.42" y2="452.3" stroke="#ddd" stroke-dasharray="3,2"></line><line x1="78.97" y1="369.4" x2="772.42" y2="369.4" stroke="#ddd" stroke-dasharray="3,2"></line><line x1="78.97" y1="286.4" x2="772.42" y2="286.4" stroke="#ddd" stroke-dasharray="3,2"></line><line x1="78.97" y1="203.4" x2="772.42" y2="203.4" stroke="#ddd" stroke-dasharray="3,2"></line><line x1="78.97" y1="120.5" x2="772.42" y2="120.5" stroke="#ddd" stroke-dasharray="3,2"></line></g><g class="AxisGridLines"><line x1="79" y1="535.30" x2="79" y2="93.90" stroke="#ddd" stroke-dasharray="3,2"></line><line x1="217.7" y1="535.30" x2="217.7" y2="93.90" stroke="#ddd" stroke-dasharray="3,2"></line><line x1="356.3" y1="535.30" x2="356.3" y2="93.90" stroke="#ddd" stroke-dasharray="3,2"></line><line x1="495" y1="535.30" x2="495" y2="93.90" stroke="#ddd" stroke-dasharray="3,2"></line><line x1="633.7" y1="535.30" x2="633.7" y2="93.90" stroke="#ddd" stroke-dasharray="3,2"></line><line x1="772.4" y1="535.30" x2="772.4" y2="93.90" stroke="#ddd" stroke-dasharray="3,2"></line></g></g><g clip-path="url(#boundsClip-274)"><g class="HeightedLegend clickable"><g class="legendMark"><rect x="782.4159999999999" y="276.7" width="52.584" height="14.4" fill="#fff" opacity="0"></rect><rect x="782.4159999999999" y="282.65" width="10" height="2.5" fill="#34983f"></rect><text font-size="14.40" x="797.4" y="288.2" fill="#333"><tspan x="797.4159999999999" y="288.21999999999997">World</tspan></text></g><g class="legendMark"><rect x="782.4159999999999" y="490.8" width="46.392" height="14.4" fill="#fff" opacity="0"></rect><rect x="782.4159999999999" y="496.75" width="10" height="2.5" fill="#ca2628"></rect><text font-size="14.40" x="797.4" y="502.3" fill="#333"><tspan x="797.4159999999999" y="502.32">India</tspan></text></g><g class="legendMark"><rect x="782.4159999999999" y="527" width="51.00000000000001" height="14.4" fill="#fff" opacity="0"></rect><rect x="782.4159999999999" y="532.95" width="10" height="2.5" fill="#3360a9"></rect><text font-size="14.40" x="797.4" y="538.5" fill="#333"><tspan x="797.4159999999999" y="538.52">Brazil</tspan></text></g></g><g class="Lines"><rect x="79" y="94" width="693" height="441" fill="rgba(255,255,255,0)" opacity="0"></rect><g class="key-World_0"><path stroke="#34983f" stroke-linecap="round" d="M79 94L107 102L134 110L162 117L190 125L218 132L245 139L273 145L301 153L329 160L356 169L384 177L412 186L440 197L467 207L495 217L523 228L551 234L578 244L606 247L634 254L662 262L689 267L717 274L745 279L772 284" fill="none" stroke-width="1.5"></path><g fill="#34983f"><circle cx="79" cy="94" r="2"></circle><circle cx="107" cy="102" r="2"></circle><circle cx="134" cy="110" r="2"></circle><circle cx="162" cy="117" r="2"></circle><circle cx="190" cy="125" r="2"></circle><circle cx="218" cy="132" r="2"></circle><circle cx="245" cy="139" r="2"></circle><circle cx="273" cy="145" r="2"></circle><circle cx="301" cy="153" r="2"></circle><circle cx="329" cy="160" r="2"></circle><circle cx="356" cy="169" r="2"></circle><circle cx="384" cy="177" r="2"></circle><circle cx="412" cy="186" r="2"></circle><circle cx="440" cy="197" r="2"></circle><circle cx="467" cy="207" r="2"></circle><circle cx="495" cy="217" r="2"></circle><circle cx="523" cy="228" r="2"></circle><circle cx="551" cy="234" r="2"></circle><circle cx="578" cy="244" r="2"></circle><circle cx="606" cy="247" r="2"></circle><circle cx="634" cy="254" r="2"></circle><circle cx="662" cy="262" r="2"></circle><circle cx="689" cy="267" r="2"></circle><circle cx="717" cy="274" r="2"></circle><circle cx="745" cy="279" r="2"></circle><circle cx="772" cy="284" r="2"></circle></g></g><g class="key-India_0"><path stroke="#ca2628" stroke-linecap="round" d="M79 409L107 413L134 417L162 420L190 423L218 427L245 431L273 435L301 440L329 444L356 449L384 453L412 458L440 462L467 466L495 471L523 475L551 479L578 482L606 486L634 488L662 491L689 492L717 495L745 496L772 498" fill="none" stroke-width="1.5"></path><g fill="#ca2628"><circle cx="79" cy="409" r="2"></circle><circle cx="107" cy="413" r="2"></circle><circle cx="134" cy="417" r="2"></circle><circle cx="162" cy="420" r="2"></circle><circle cx="190" cy="423" r="2"></circle><circle cx="218" cy="427" r="2"></circle><circle cx="245" cy="431" r="2"></circle><circle cx="273" cy="435" r="2"></circle><circle cx="301" cy="440" r="2"></circle><circle cx="329" cy="444" r="2"></circle><circle cx="356" cy="449" r="2"></circle><circle cx="384" cy="453" r="2"></circle><circle cx="412" cy="458" r="2"></circle><circle cx="440" cy="462" r="2"></circle><circle cx="467" cy="466" r="2"></circle><circle cx="495" cy="471" r="2"></circle><circle cx="523" cy="475" r="2"></circle><circle cx="551" cy="479" r="2"></circle><circle cx="578" cy="482" r="2"></circle><circle cx="606" cy="486" r="2"></circle><circle cx="634" cy="488" r="2"></circle><circle cx="662" cy="491" r="2"></circle><circle cx="689" cy="492" r="2"></circle><circle cx="717" cy="495" r="2"></circle><circle cx="745" cy="496" r="2"></circle><circle cx="772" cy="498" r="2"></circle></g></g><g class="key-Brazil_0"><path stroke="#3360a9" stroke-linecap="round" d="M79 532L107 532L134 533L162 533L190 533L218 533L245 533L273 533L301 533L329 533L356 533L384 534L412 534L440 534L467 533L495 533L523 533L551 534L578 534L606 534L634 534L662 534L689 534L717 534L745 534L772 534" fill="none" stroke-width="1.5"></path><g fill="#3360a9"><circle cx="79" cy="532" r="2"></circle><circle cx="107" cy="532" r="2"></circle><circle cx="134" cy="533" r="2"></circle><circle cx="162" cy="533" r="2"></circle><circle cx="190" cy="533" r="2"></circle><circle cx="218" cy="533" r="2"></circle><circle cx="245" cy="533" r="2"></circle><circle cx="273" cy="533" r="2"></circle><circle cx="301" cy="533" r="2"></circle><circle cx="329" cy="533" r="2"></circle><circle cx="356" cy="533" r="2"></circle><circle cx="384" cy="534" r="2"></circle><circle cx="412" cy="534" r="2"></circle><circle cx="440" cy="534" r="2"></circle><circle cx="467" cy="533" r="2"></circle><circle cx="495" cy="533" r="2"></circle><circle cx="523" cy="533" r="2"></circle><circle cx="551" cy="534" r="2"></circle><circle cx="578" cy="534" r="2"></circle><circle cx="606" cy="534" r="2"></circle><circle cx="634" cy="534" r="2"></circle><circle cx="662" cy="534" r="2"></circle><circle cx="689" cy="534" r="2"></circle><circle cx="717" cy="534" r="2"></circle><circle cx="745" cy="534" r="2"></circle><circle cx="772" cy="534" r="2"></circle></g></g></g></g></g><g style="fill: #777;" class="SourcesFooter"><g style="fill: #777;" class="clickable"><text font-size="12.60" x="15.0" y="581.6"><tspan x="15" y="581.58">Source: World Bank – WDI</tspan></text></g><text font-size="12.60" x="649.0" y="581.6"><tspan x="649.024" y="581.58"><a target='_blank' style='fill: #777;' href='http://ourworldindata.org'>OurWorldInData.org</a> • <a style="fill: #777;" href="http://creativecommons.org/licenses/by-sa/4.0/deed.en_US" target="_blank">CC BY-SA</a></tspan></text></g></g></svg>
